X: 5
T: Carraigín Ruadh
R: reel
M: 4/4
L: 1/8
K: Dmaj
|: df ~f2 eBdB | AF ~F2 EDB,A, | dBAF DEFA | Bded BAFA |
 f2df e2dB | AF F2 EDB,A, | B,EFE DEFA | dBAG FDD2 :|
|: fa a2 afde | faaf bfaf | gfed Bdag | (3fga edBA F2 |
[1 fa a2 afde | faaf bfaf | gfef gbag | (3fga egfd d2 :|
[2 gb (3bbb afde | ~f3d eB B2 | Bded BAFA | dBAG FDD2 ||

composer: Brendan Tonra
